svgs/sharp-solid/helmet-un.svg

<svg xmlns="http://www.w3.org/2000/svg" viewBox="0 0 512 512"><!--! Font Awesome Pro 6.6.0 by @fontawesome - https://fontawesome.com License - https://fontawesome.com/license (Commercial License) Copyright 2024 Fonticons, Inc. --><path d="M479.5 224C471.2 98.9 367.2 0 240 0C107.5 0 0 107.5 0 240L0 352l0 32 32 0 168 0 14.9 0L343.5 505.4c4.5 4.2 10.4 6.6 16.5 6.6l96 0 24 0 0-48-24 0-86.5 0-1.5-1.5L368 288l48 0 32 0 32 0 32 0 0-64-32 0-.5 0zM320 417.2l-78-73.7L274.4 288l45.6 0 0 129.2zM160 112l0 64c0 8.8 7.2 16 16 16s16-7.2 16-16l0-64 0-16 32 0 0 16 0 64c0 26.5-21.5 48-48 48s-48-21.5-48-48l0-64 0-16 32 0 0 16zM272 96l8 0 9.9 0 4.4 8.8L320 156.2l0-44.2 0-16 32 0 0 16 0 96 0 16-16 0-8 0-9.9 0-4.4-8.8L288 163.8l0 44.2 0 16-32 0 0-16 0-96 0-16 16 0z"/></svg>

<svg xmlns="http://www.w3.org/2000/svg" viewBox="0 0 512 512"><!--! Font Awesome Pro 6.4.2 by @fontawesome - https://fontawesome.com License - https://fontawesome.com/license (Commercial License) Copyright 2023 Fonticons, Inc. --><path d="M479.5 224C471.2 98.9 367.2 0 240 0C107.5 0 0 107.5 0 240V352v32H32 200h14.9L343.5 505.4c4.5 4.2 10.4 6.6 16.5 6.6h96 24V464H456 369.5l-1.5-1.5V288h48 32 32 32V224H480h-.5zM320 417.2l-78-73.7L274.4 288H320V417.2zM160 112v64c0 8.8 7.2 16 16 16s16-7.2 16-16V112 96h32v16 64c0 26.5-21.5 48-48 48s-48-21.5-48-48V112 96h32v16zM272 96h8 9.9l4.4 8.8L320 156.2V112 96h32v16 96 16H336h-8-9.9l-4.4-8.8L288 163.8V208v16H256V208 112 96h16z"/></svg>
